X: 143
T: No_226_Ball_Game_Song_(i).krn
N: Derived from No_226_Ball_Game_Song_(i).krn
%%abc-version 2.0
%%abcx-abcm2ps-target-version 5.9.1 (29 Sep 2008)
%%abc-creator hum2abc beta
%%abcx-conversion-date 2019/03/15 08:38:45
%%humdrum-veritas 2835359122
%%humdrum-veritas-data 2697251422
%%linebreak <none>
%%barnumbers 0
L: 1/8
M: 3/8
K: F clef=bass
[K:clef=bass][M:3/8]z2z/ F,/ ||  
[M:2/4]C2C/B,/A,/G,/ | 
B,/G,3/ F, z | 
F,/F,/D, F,D, | 
F,/F,/F, F,G, | 
A,G,3//F,// G,3/F,/ | 
G,2F,/ z/ G,3//A,// | 
G,2F, z | 
F,/F,/D, F,/ z/ D, ||  
[M:3/4]B,2z2(A,/F,/)F, | 
DD CD CB, ||  
[M:2/4]A,2F, z ||  
[M:3/4]DD CB, A,/A,/B, ||  
[M:2/4]A,2F, z ||  
[M:3/4]F,A, A,C CB, ||  
[M:2/4]A,2F,F, | 
C z (A,/G,/F,/F,/) |]  



